;FLAVOR:Marlin
;TIME:8272
;Filament used: 6.2492m
;Layer height: 0.1
;MINX:25.439
;MINY:61.873
;MINZ:0.3
;MAXX:174.427
;MAXY:138.127
;MAXZ:10.38
;Generated with Cura_SteamEngine 4.1.0-BETA
M140 S75
M105
M190 S75
M104 S210
M105
M109 S210
M82 ;absolute extrusion mode
G21 ;metric values
 G90 ;absolute positioning
 M82 ;set extruder to absolute mode
 M107 ;start with the fan off
 G28 X0 Y0 ;move X/Y to min endstops
 G28 Z0 ;move Z to min endstops
 G1 Z15.0 F120 ;move the platform down 15mm
 G92 E0 ;zero the extruded length
 G1 F200 E6 ;extrude 6 mm of feed stock
 G92 E0 ;zero the extruded length again
 G1 F120 
 ;Put printing message on LCD screen
 M117 Printing...
G92 E0
G92 E0
G1 F900 E-8
;LAYER_COUNT:93
;LAYER:0
M107
G0 F3600 X32.321 Y63.536 Z0.3
;TYPE:SKIRT
G1 F900 E0
G1 F1800 X32.508 Y63.441 E0.01046
G1 X32.652 Y63.372 E0.01843
G1 X33.082 Y63.177 E0.04199
G1 X33.223 Y63.117 E0.04963
G1 X33.466 Y63.019 E0.0627
G1 X33.586 Y62.973 E0.06911
G1 X34.166 Y62.763 E0.09989
G1 X34.345 Y62.704 E0.10929
G1 X35.582 Y62.328 E0.17379
G1 X35.767 Y62.277 E0.18337
G1 X36.051 Y62.207 E0.19796
G1 X36.223 Y62.169 E0.20675
G1 X36.74 Y62.068 E0.23303
G1 X36.935 Y62.035 E0.2429
G1 X37.216 Y61.996 E0.25705
G1 X37.327 Y61.983 E0.26263
G1 X37.709 Y61.942 E0.28179
G1 X37.808 Y61.932 E0.28676
G1 X38.035 Y61.914 E0.29812
G1 X38.191 Y61.905 E0.30591
G1 X38.918 Y61.879 E0.34221
G1 X39.014 Y61.877 E0.347
G1 X39.339 Y61.874 E0.36321
G1 X39.372 Y61.874 E0.36486
G1 X153.964 Y61.873 E6.08188
G1 X160.31 Y61.874 E6.39848
G1 X160.379 Y61.875 E6.40192
G1 X161.872 Y61.904 E6.47642
G1 X162.056 Y61.912 E6.48561
G1 X162.423 Y61.938 E6.50397
G1 X162.617 Y61.957 E6.51369
G1 X163.119 Y62.02 E6.53893
G1 X163.266 Y62.041 E6.54634
G1 X163.481 Y62.077 E6.55722
G1 X163.62 Y62.104 E6.56428
G1 X164.052 Y62.194 E6.5863
G1 X164.175 Y62.221 E6.59258
G1 X164.428 Y62.283 E6.60558
G1 X164.568 Y62.321 E6.61281
G1 X165.026 Y62.453 E6.63659
G1 X165.182 Y62.502 E6.64475
G1 X165.46 Y62.596 E6.65939
G1 X165.582 Y62.639 E6.66585
G1 X165.941 Y62.775 E6.685
G1 X166.041 Y62.815 E6.69037
G1 X166.254 Y62.903 E6.70187
G1 X166.411 Y62.972 E6.71043
G1 X166.881 Y63.193 E6.73634
G1 X166.99 Y63.247 E6.74241
G1 X167.199 Y63.354 E6.75412
G1 X167.345 Y63.433 E6.7624
G1 X167.728 Y63.652 E6.78441
G1 X167.836 Y63.716 E6.79068
G1 X168.067 Y63.859 E6.80423
G1 X168.195 Y63.942 E6.81184
G1 X168.566 Y64.194 E6.83422
G1 X168.668 Y64.266 E6.84045
G1 X168.88 Y64.421 E6.85355
G1 X169.006 Y64.517 E6.86145
G1 X169.358 Y64.799 E6.88395
G1 X169.462 Y64.887 E6.89075
G1 X169.64 Y65.041 E6.90249
G1 X169.745 Y65.135 E6.90952
G1 X170.105 Y65.472 E6.93412
G1 X170.205 Y65.569 E6.94108
G1 X170.376 Y65.742 E6.95321
G1 X170.474 Y65.845 E6.9603
G1 X170.78 Y66.18 E6.98294
G1 X170.888 Y66.303 E6.99111
G1 X171.043 Y66.489 E7.00319
G1 X171.121 Y66.587 E7.00943
G1 X171.53 Y67.114 E7.04272
G1 X171.632 Y67.252 E7.05128
G1 X172.304 Y68.209 E7.10962
G1 X172.401 Y68.355 E7.11836
G1 X172.564 Y68.613 E7.13359
G1 X172.673 Y68.796 E7.14421
G1 X172.975 Y69.343 E7.17539
G1 X173.081 Y69.551 E7.18703
G1 X173.356 Y70.136 E7.21928
G1 X173.439 Y70.326 E7.22963
G1 X173.537 Y70.57 E7.24275
G1 X173.582 Y70.688 E7.24905
G1 X173.745 Y71.139 E7.27297
G1 X173.789 Y71.269 E7.27982
G1 X173.863 Y71.501 E7.29197
G1 X173.908 Y71.654 E7.29993
G1 X174.016 Y72.053 E7.32055
G1 X174.038 Y72.14 E7.32502
G1 X174.1 Y72.394 E7.33807
G1 X174.137 Y72.564 E7.34675
G1 X174.226 Y73.024 E7.37012
G1 X174.258 Y73.212 E7.37964
G1 X174.311 Y73.593 E7.39883
G1 X174.324 Y73.705 E7.40445
G1 X174.358 Y74.022 E7.42036
G1 X174.368 Y74.121 E7.42532
G1 X174.387 Y74.36 E7.43729
G1 X174.396 Y74.518 E7.44518
G1 X174.421 Y75.228 E7.48063
G1 X174.423 Y75.322 E7.48532
G1 X174.426 Y75.65 E7.50168
G1 X174.426 Y75.683 E7.50333
G1 X174.427 Y123.822 E9.90499
G1 X174.426 Y123.894 E9.90858
G1 X174.398 Y125.291 E9.97829
G1 X174.385 Y125.533 E9.99039
G1 X174.316 Y126.32 E10.0298
G1 X174.288 Y126.556 E10.04166
G1 X174.213 Y127.041 E10.06614
G1 X174.18 Y127.224 E10.07542
G1 X174.117 Y127.527 E10.09086
G1 X174.092 Y127.637 E10.09649
G1 X174.026 Y127.911 E10.11055
G1 X173.985 Y128.067 E10.11859
G1 X173.847 Y128.545 E10.14342
G1 X173.794 Y128.713 E10.1522
G1 X173.697 Y128.996 E10.16713
G1 X173.658 Y129.104 E10.17286
G1 X173.513 Y129.487 E10.19329
G1 X173.425 Y129.699 E10.20474
G1 X173.128 Y130.354 E10.24062
G1 X173.053 Y130.508 E10.24917
G1 X172.946 Y130.717 E10.26088
G1 X172.869 Y130.86 E10.26898
G1 X172.651 Y131.242 E10.29093
G1 X172.597 Y131.333 E10.29621
G1 X172.478 Y131.528 E10.3076
G1 X172.384 Y131.674 E10.31627
G1 X172.021 Y132.209 E10.34852
G1 X171.918 Y132.354 E10.3574
G1 X171.128 Y133.403 E10.42291
G1 X170.993 Y133.57 E10.43363
G1 X170.81 Y133.785 E10.44771
G1 X170.698 Y133.911 E10.45612
G1 X170.336 Y134.298 E10.48256
G1 X170.244 Y134.393 E10.48916
G1 X170.092 Y134.544 E10.49985
G1 X169.98 Y134.651 E10.50757
G1 X169.664 Y134.939 E10.5289
G1 X169.544 Y135.044 E10.53686
G1 X169.292 Y135.254 E10.55323
G1 X169.191 Y135.334 E10.55965
G1 X168.845 Y135.602 E10.58149
G1 X168.663 Y135.734 E10.5927
G1 X168.09 Y136.123 E10.62726
G1 X167.926 Y136.228 E10.63697
G1 X167.702 Y136.363 E10.65002
G1 X167.584 Y136.432 E10.65684
G1 X167.171 Y136.66 E10.68038
G1 X167.047 Y136.725 E10.68736
G1 X166.842 Y136.828 E10.69881
G1 X166.715 Y136.889 E10.70584
G1 X166.321 Y137.068 E10.72743
G1 X166.203 Y137.119 E10.73384
G1 X165.948 Y137.224 E10.7476
G1 X165.788 Y137.285 E10.75614
G1 X165.326 Y137.45 E10.78062
G1 X165.199 Y137.493 E10.78731
G1 X164.971 Y137.565 E10.79923
G1 X164.832 Y137.606 E10.80646
G1 X164.398 Y137.724 E10.8289
G1 X164.286 Y137.752 E10.83466
G1 X164.08 Y137.801 E10.84523
G1 X163.937 Y137.832 E10.85253
G1 X163.425 Y137.932 E10.87855
G1 X163.239 Y137.964 E10.88797
G1 X162.963 Y138.003 E10.90187
G1 X162.845 Y138.017 E10.9078
G1 X162.474 Y138.057 E10.92642
G1 X162.369 Y138.067 E10.93168
G1 X162.114 Y138.087 E10.94444
G1 X161.96 Y138.096 E10.95214
G1 X161.253 Y138.121 E10.98743
G1 X161.159 Y138.123 E10.99212
G1 X160.83 Y138.126 E11.00854
G1 X160.797 Y138.126 E11.01019
G1 X46.2 Y138.127 E16.72745
G1 X39.856 Y138.126 E17.04396
G1 X39.786 Y138.125 E17.04745
G1 X38.293 Y138.096 E17.12195
G1 X38.109 Y138.088 E17.13114
G1 X37.742 Y138.062 E17.14949
G1 X37.547 Y138.043 E17.15927
G1 X37.046 Y137.98 E17.18446
G1 X36.906 Y137.959 E17.19152
G1 X36.689 Y137.923 E17.2025
G1 X36.544 Y137.896 E17.20986
G1 X36.112 Y137.806 E17.23187
G1 X35.986 Y137.778 E17.23831
G1 X35.734 Y137.716 E17.25126
G1 X35.604 Y137.681 E17.25797
G1 X35.013 Y137.512 E17.28864
G1 X34.826 Y137.453 E17.29842
G1 X33.652 Y137.047 E17.3604
G1 X33.484 Y136.984 E17.36935
G1 X33.139 Y136.845 E17.38791
G1 X32.954 Y136.765 E17.39796
G1 X32.496 Y136.55 E17.4232
G1 X32.385 Y136.495 E17.42938
G1 X32.182 Y136.391 E17.44076
G1 X32.035 Y136.312 E17.44909
G1 X31.654 Y136.094 E17.47099
G1 X31.562 Y136.039 E17.47634
G1 X31.353 Y135.911 E17.48856
G1 X31.213 Y135.821 E17.49687
G1 X30.8 Y135.541 E17.52176
G1 X30.681 Y135.457 E17.52903
G1 X30.482 Y135.31 E17.54137
G1 X30.366 Y135.22 E17.5487
G1 X30.02 Y134.942 E17.57084
G1 X29.914 Y134.854 E17.57771
G1 X29.731 Y134.695 E17.58981
G1 X29.634 Y134.607 E17.59634
G1 X29.268 Y134.265 E17.62133
G1 X29.172 Y134.172 E17.628
G1 X29.022 Y134.021 E17.63862
G1 X28.915 Y133.909 E17.64635
G1 X28.617 Y133.582 E17.66842
G1 X28.513 Y133.463 E17.6763
G1 X28.317 Y133.228 E17.69157
G1 X28.235 Y133.125 E17.69814
G1 X27.951 Y132.758 E17.72129
G1 X27.816 Y132.571 E17.7328
G1 X27.436 Y132.009 E17.76664
G1 X27.329 Y131.841 E17.77658
G1 X27.195 Y131.617 E17.7896
G1 X27.13 Y131.504 E17.79611
G1 X26.888 Y131.064 E17.82116
G1 X26.779 Y130.85 E17.83314
G1 X26.511 Y130.275 E17.86479
G1 X26.436 Y130.103 E17.87415
G1 X26.324 Y129.826 E17.88906
G1 X26.278 Y129.705 E17.89552
G1 X26.122 Y129.275 E17.91834
G1 X26.067 Y129.113 E17.92687
G1 X25.992 Y128.871 E17.93951
G1 X25.959 Y128.756 E17.94548
G1 X25.853 Y128.369 E17.9655
G1 X25.827 Y128.267 E17.97075
G1 X25.768 Y128.024 E17.98323
G1 X25.731 Y127.858 E17.99171
G1 X25.629 Y127.33 E18.01854
G1 X25.597 Y127.133 E18.0285
G1 X25.558 Y126.847 E18.0429
G1 X25.546 Y126.748 E18.04788
G1 X25.507 Y126.387 E18.06599
G1 X25.497 Y126.287 E18.071
G1 X25.479 Y126.062 E18.08227
G1 X25.47 Y125.897 E18.09051
G1 X25.444 Y125.132 E18.1287
G1 X25.442 Y125.039 E18.13334
G1 X25.44 Y124.793 E18.14561
G1 X25.44 Y124.764 E18.14706
G1 X25.439 Y75.767 E20.59153
G1 X25.44 Y75.695 E20.59512
G1 X25.468 Y74.292 E20.66513
G1 X25.481 Y74.044 E20.67752
G1 X25.553 Y73.237 E20.71794
G1 X25.583 Y72.998 E20.72996
G1 X25.656 Y72.534 E20.75339
G1 X25.69 Y72.347 E20.76288
G1 X25.755 Y72.04 E20.77853
G1 X25.777 Y71.944 E20.78345
G1 X25.841 Y71.678 E20.7971
G1 X25.88 Y71.528 E20.80483
G1 X26.017 Y71.05 E20.82964
G1 X26.068 Y70.889 E20.83806
G1 X26.162 Y70.611 E20.8527
G1 X26.207 Y70.486 E20.85933
G1 X26.346 Y70.12 E20.87886
G1 X26.383 Y70.025 E20.88395
G1 X26.468 Y69.819 E20.89507
G1 X26.538 Y69.661 E20.90369
G1 X26.764 Y69.18 E20.9302
G1 X26.818 Y69.069 E20.93636
G1 X26.919 Y68.872 E20.94741
G1 X26.998 Y68.726 E20.95569
G1 X27.22 Y68.338 E20.97799
G1 X27.279 Y68.239 E20.98374
G1 X27.407 Y68.031 E20.99592
G1 X27.494 Y67.897 E21.00389
G1 X27.781 Y67.474 E21.0294
G1 X27.871 Y67.347 E21.03716
G1 X28.016 Y67.152 E21.04929
G1 X28.095 Y67.05 E21.05572
G1 X28.364 Y66.714 E21.0772
G1 X28.464 Y66.594 E21.08499
G1 X28.624 Y66.411 E21.09712
G1 X28.705 Y66.322 E21.10312
G1 X29.051 Y65.952 E21.12839
G1 X29.213 Y65.789 E21.13986
G1 X29.668 Y65.361 E21.17102
G1 X29.83 Y65.217 E21.18184
G1 X30.106 Y64.987 E21.19976
G1 X30.21 Y64.904 E21.2064
G1 X30.54 Y64.649 E21.22721
G1 X30.723 Y64.517 E21.23846
G1 X31.317 Y64.115 E21.27425
G1 X31.49 Y64.005 E21.28448
G1 X31.676 Y63.894 E21.29528
G1 X31.775 Y63.837 E21.30098
G1 X32.206 Y63.598 E21.32557
G1 X32.321 Y63.536 E21.33209
G0 F3600 X32.503 Y63.893
G1 F1800 X32.69 Y63.798 E21.34255
G1 X32.817 Y63.737 E21.34958
G1 X33.247 Y63.542 E21.37314
G1 X33.372 Y63.488 E21.37993
G1 X33.615 Y63.39 E21.393
G1 X33.723 Y63.349 E21.39876
G1 X34.303 Y63.139 E21.42954
G1 X34.461 Y63.086 E21.43785
G1 X35.698 Y62.71 E21.50236
G1 X35.863 Y62.665 E21.51089
G1 X36.147 Y62.595 E21.52548
G1 X36.299 Y62.561 E21.53325
G1 X36.816 Y62.46 E21.55953
G1 X36.99 Y62.431 E21.56833
G1 X37.271 Y62.392 E21.58249
G1 X37.37 Y62.38 E21.58746
G1 X37.752 Y62.339 E21.60663
G1 X37.84 Y62.331 E21.61104
G1 X38.067 Y62.313 E21.6224
G1 X38.206 Y62.305 E21.62934
G1 X38.933 Y62.279 E21.66564
G1 X39.017 Y62.277 E21.66983
G1 X39.342 Y62.274 E21.68604
G1 X39.372 Y62.274 E21.68754
G1 X153.964 Y62.273 E27.40456
G1 X160.31 Y62.274 E27.72116
G1 X160.371 Y62.275 E27.72421
G1 X161.864 Y62.304 E27.79871
G1 X162.028 Y62.311 E27.8069
G1 X162.395 Y62.337 E27.82525
G1 X162.567 Y62.354 E27.83387
G1 X163.069 Y62.417 E27.85912
G1 X163.199 Y62.436 E27.86567
G1 X163.414 Y62.472 E27.87655
G1 X163.539 Y62.495 E27.88289
G1 X163.971 Y62.585 E27.9049
G1 X164.08 Y62.61 E27.91048
G1 X164.333 Y62.672 E27.92348
G1 X164.457 Y62.705 E27.92988
G1 X164.915 Y62.837 E27.95366
G1 X165.054 Y62.881 E27.96093
G1 X165.332 Y62.975 E27.97557
G1 X165.441 Y63.014 E27.98135
G1 X165.8 Y63.15 E28.0005
G1 X165.888 Y63.184 E28.00521
G1 X166.101 Y63.272 E28.01671
G1 X166.241 Y63.334 E28.02435
G1 X166.711 Y63.555 E28.05026
G1 X166.807 Y63.603 E28.05561
G1 X167.016 Y63.71 E28.06733
G1 X167.146 Y63.78 E28.07469
G1 X167.529 Y63.999 E28.0967
G1 X167.625 Y64.056 E28.10227
G1 X167.856 Y64.199 E28.11583
G1 X167.97 Y64.273 E28.12261
G1 X168.341 Y64.525 E28.14498
G1 X168.432 Y64.589 E28.15053
G1 X168.644 Y64.744 E28.16364
G1 X168.756 Y64.83 E28.17068
G1 X169.108 Y65.112 E28.19318
G1 X169.201 Y65.189 E28.19921
G1 X169.379 Y65.343 E28.21095
G1 X169.472 Y65.427 E28.2172
G1 X169.832 Y65.764 E28.2418
G1 X169.921 Y65.85 E28.24798
G1 X170.092 Y66.023 E28.26011
G1 X170.179 Y66.115 E28.26643
G1 X170.485 Y66.45 E28.28907
G1 X170.58 Y66.559 E28.29628
G1 X170.735 Y66.745 E28.30836
G1 X170.805 Y66.832 E28.31393
G1 X171.214 Y67.359 E28.34721
G1 X171.305 Y67.482 E28.35485
G1 X171.977 Y68.439 E28.41319
G1 X172.063 Y68.569 E28.42096
G1 X172.226 Y68.827 E28.43619
G1 X172.322 Y68.989 E28.44558
G1 X172.624 Y69.536 E28.47675
G1 X172.719 Y69.722 E28.48717
G1 X172.994 Y70.307 E28.51942
G1 X173.067 Y70.475 E28.52856
G1 X173.165 Y70.719 E28.54168
G1 X173.205 Y70.824 E28.54729
G1 X173.368 Y71.275 E28.57121
G1 X173.408 Y71.391 E28.57733
G1 X173.482 Y71.623 E28.58948
G1 X173.522 Y71.759 E28.59656
G1 X173.63 Y72.158 E28.61718
G1 X173.65 Y72.235 E28.62115
G1 X173.712 Y72.489 E28.63419
G1 X173.745 Y72.64 E28.6419
G1 X173.834 Y73.1 E28.66528
G1 X173.861 Y73.267 E28.67372
G1 X173.914 Y73.648 E28.69291
G1 X173.927 Y73.748 E28.69794
G1 X173.961 Y74.065 E28.71385
G1 X173.969 Y74.152 E28.7182
G1 X173.988 Y74.391 E28.73017
G1 X173.996 Y74.532 E28.73721
G1 X174.021 Y75.242 E28.77266
G1 X174.023 Y75.326 E28.77685
G1 X174.026 Y75.654 E28.79321
G1 X174.026 Y75.683 E28.79466
G1 X174.027 Y123.822 E31.19632
G1 X174.026 Y123.886 E31.19952
G1 X173.998 Y125.283 E31.26923
G1 X173.987 Y125.498 E31.27997
G1 X173.918 Y126.285 E31.31938
G1 X173.892 Y126.495 E31.32994
G1 X173.817 Y126.98 E31.35442
G1 X173.788 Y127.142 E31.36263
G1 X173.725 Y127.445 E31.37807
G1 X173.703 Y127.543 E31.38308
G1 X173.637 Y127.817 E31.39715
G1 X173.6 Y127.956 E31.40432
G1 X173.462 Y128.434 E31.42914
G1 X173.415 Y128.584 E31.43699
G1 X173.318 Y128.867 E31.45191
G1 X173.284 Y128.962 E31.45694
G1 X173.139 Y129.345 E31.47738
G1 X173.06 Y129.533 E31.48755
G1 X172.763 Y130.188 E31.52343
G1 X172.697 Y130.325 E31.53102
G1 X172.59 Y130.534 E31.54273
G1 X172.521 Y130.662 E31.54999
G1 X172.303 Y131.044 E31.57193
G1 X172.256 Y131.125 E31.5766
G1 X172.137 Y131.32 E31.588
G1 X172.053 Y131.45 E31.59572
G1 X171.69 Y131.985 E31.62798
G1 X171.598 Y132.113 E31.63584
G1 X170.808 Y133.162 E31.70136
G1 X170.689 Y133.311 E31.71087
G1 X170.506 Y133.526 E31.72496
G1 X170.406 Y133.638 E31.73245
G1 X170.044 Y134.025 E31.75888
G1 X169.962 Y134.109 E31.76474
G1 X169.81 Y134.26 E31.77543
G1 X169.711 Y134.355 E31.78227
G1 X169.395 Y134.643 E31.80361
G1 X169.288 Y134.736 E31.81068
G1 X169.036 Y134.946 E31.82704
G1 X168.947 Y135.018 E31.83275
G1 X168.601 Y135.286 E31.85459
G1 X168.438 Y135.404 E31.86463
G1 X167.865 Y135.793 E31.89918
G1 X167.72 Y135.886 E31.90778
G1 X167.496 Y136.021 E31.92082
G1 X167.391 Y136.081 E31.92686
G1 X166.978 Y136.309 E31.95039
G1 X166.868 Y136.367 E31.9566
G1 X166.663 Y136.47 E31.96804
G1 X166.55 Y136.524 E31.97429
G1 X166.156 Y136.703 E31.99588
G1 X166.05 Y136.749 E32.00165
G1 X165.795 Y136.854 E32.0154
G1 X165.653 Y136.909 E32.023
G1 X165.191 Y137.074 E32.04748
G1 X165.079 Y137.111 E32.05336
G1 X164.851 Y137.183 E32.06529
G1 X164.727 Y137.22 E32.07175
G1 X164.293 Y137.338 E32.09418
G1 X164.194 Y137.363 E32.09928
G1 X163.988 Y137.412 E32.10984
G1 X163.86 Y137.44 E32.11638
G1 X163.348 Y137.54 E32.14241
G1 X163.183 Y137.568 E32.15076
G1 X162.907 Y137.607 E32.16466
G1 X162.802 Y137.62 E32.16994
G1 X162.431 Y137.66 E32.18856
G1 X162.338 Y137.668 E32.19321
G1 X162.083 Y137.688 E32.20598
G1 X161.946 Y137.696 E32.21282
G1 X161.239 Y137.721 E32.24812
G1 X161.155 Y137.723 E32.25231
G1 X160.826 Y137.726 E32.26872
G1 X160.797 Y137.726 E32.27017
G1 X46.2 Y137.727 E37.98744
G1 X39.856 Y137.726 E38.30394
G1 X39.794 Y137.725 E38.30703
G1 X38.301 Y137.696 E38.38153
G1 X38.137 Y137.689 E38.38972
G1 X37.77 Y137.663 E38.40808
G1 X37.597 Y137.646 E38.41675
G1 X37.096 Y137.583 E38.44194
G1 X36.971 Y137.565 E38.44824
G1 X36.754 Y137.529 E38.45922
G1 X36.625 Y137.505 E38.46576
G1 X36.193 Y137.415 E38.48778
G1 X36.081 Y137.389 E38.49352
G1 X35.829 Y137.327 E38.50646
G1 X35.714 Y137.297 E38.51239
G1 X35.123 Y137.128 E38.54306
G1 X34.957 Y137.075 E38.55175
G1 X33.783 Y136.669 E38.61373
G1 X33.633 Y136.613 E38.62172
G1 X33.288 Y136.474 E38.64027
G1 X33.124 Y136.403 E38.64919
G1 X32.666 Y136.188 E38.67443
G1 X32.567 Y136.139 E38.67994
G1 X32.364 Y136.035 E38.69132
G1 X32.234 Y135.964 E38.69871
G1 X31.853 Y135.746 E38.72061
G1 X31.771 Y135.698 E38.72535
G1 X31.562 Y135.57 E38.73758
G1 X31.437 Y135.49 E38.74498
G1 X31.024 Y135.21 E38.76988
G1 X30.919 Y135.135 E38.77631
G1 X30.72 Y134.988 E38.78866
