;FLAVOR:Marlin
;TIME:6653
;Filament used: 3.77635m
;Layer height: 0.1
;MINX:26.426
;MINY:62.845
;MINZ:0.3
;MAXX:173.498
;MAXY:137.155
;MAXZ:9.3
;Generated with Cura_SteamEngine 4.1.0-BETA
M140 S60
M105
M190 S60
M104 S200
M105
M109 S200
M82 ;absolute extrusion mode
G21 ;metric values
 G90 ;absolute positioning
 M82 ;set extruder to absolute mode
 M107 ;start with the fan off
 G28 X0 Y0 ;move X/Y to min endstops
 G28 Z0 ;move Z to min endstops
 G1 Z15.0 F120 ;move the platform down 15mm
 G92 E0 ;zero the extruded length
 G1 F200 E6 ;extrude 6 mm of feed stock
 G92 E0 ;zero the extruded length again
 G1 F120 
 ;Put printing message on LCD screen
 M117 Printing...
G92 E0
G92 E0
G1 F1500 E-6.5
;LAYER_COUNT:91
;LAYER:0
M107
G0 F3600 X32.955 Y64.314 Z0.3
;TYPE:SKIRT
G1 F1500 E0
G1 F1800 X33.137 Y64.222 E0.01017
G1 X33.27 Y64.159 E0.01752
G1 X33.693 Y63.969 E0.04065
G1 X33.779 Y63.932 E0.04532
G1 X33.989 Y63.845 E0.05666
G1 X34.14 Y63.786 E0.06475
G1 X34.637 Y63.609 E0.09107
G1 X34.784 Y63.561 E0.09879
G1 X35.699 Y63.284 E0.14648
G1 X35.844 Y63.244 E0.15399
G1 X36.189 Y63.157 E0.17174
G1 X36.369 Y63.117 E0.18094
G1 X36.839 Y63.027 E0.20481
G1 X36.99 Y63.002 E0.21245
G1 X37.299 Y62.958 E0.22802
G1 X37.406 Y62.945 E0.2334
G1 X37.757 Y62.907 E0.25101
G1 X37.974 Y62.891 E0.26187
G1 X38.982 Y62.851 E0.31219
G1 X39.109 Y62.848 E0.31853
G1 X157.822 Y62.845 E6.24115
G1 X157.823 Y62.845 E6.2412
G1 X160.276 Y62.846 E6.36358
G1 X160.337 Y62.847 E6.36662
G1 X161.836 Y62.876 E6.44142
G1 X161.998 Y62.883 E6.44951
G1 X162.326 Y62.906 E6.46592
G1 X162.502 Y62.923 E6.47474
G1 X163.018 Y62.988 E6.50068
G1 X163.198 Y63.016 E6.50977
G1 X163.48 Y63.068 E6.52408
G1 X163.553 Y63.082 E6.52779
G1 X163.865 Y63.147 E6.54369
G1 X163.965 Y63.17 E6.54881
G1 X164.217 Y63.231 E6.56174
G1 X164.366 Y63.271 E6.56944
G1 X164.812 Y63.402 E6.59263
G1 X164.94 Y63.442 E6.59932
G1 X165.24 Y63.544 E6.61513
G1 X165.353 Y63.585 E6.62112
G1 X165.693 Y63.715 E6.63929
G1 X165.785 Y63.752 E6.64423
G1 X165.981 Y63.834 E6.65483
G1 X166.108 Y63.89 E6.66176
G1 X166.578 Y64.111 E6.68767
G1 X166.684 Y64.164 E6.69358
G1 X166.868 Y64.259 E6.70391
G1 X166.986 Y64.323 E6.71061
G1 X167.347 Y64.529 E6.73135
G1 X167.469 Y64.602 E6.73844
G1 X167.724 Y64.763 E6.75348
G1 X167.823 Y64.828 E6.75939
G1 X168.197 Y65.084 E6.782
G1 X168.288 Y65.149 E6.78758
G1 X168.459 Y65.275 E6.79818
G1 X168.564 Y65.355 E6.80477
G1 X168.893 Y65.619 E6.82581
G1 X168.991 Y65.701 E6.83219
G1 X169.176 Y65.862 E6.84442
G1 X169.266 Y65.944 E6.8505
G1 X169.631 Y66.287 E6.87548
G1 X169.783 Y66.44 E6.88624
G1 X170.222 Y66.912 E6.9184
G1 X170.423 Y67.15 E6.93394
G1 X171.098 Y68.035 E6.98947
G1 X171.178 Y68.145 E6.99626
G1 X171.508 Y68.618 E7.02503
G1 X171.593 Y68.745 E7.03266
G1 X171.766 Y69.02 E7.04887
G1 X171.86 Y69.181 E7.05817
G1 X172.122 Y69.657 E7.08528
G1 X172.216 Y69.841 E7.09558
G1 X172.491 Y70.427 E7.12788
G1 X172.552 Y70.566 E7.13545
G1 X172.646 Y70.794 E7.14776
G1 X172.701 Y70.937 E7.1554
G1 X172.864 Y71.393 E7.17956
G1 X172.911 Y71.532 E7.18688
G1 X172.991 Y71.793 E7.2005
G1 X173.019 Y71.893 E7.20568
G1 X173.111 Y72.232 E7.2232
G1 X173.136 Y72.328 E7.22815
G1 X173.193 Y72.567 E7.24041
G1 X173.222 Y72.704 E7.2474
G1 X173.32 Y73.213 E7.27326
G1 X173.347 Y73.373 E7.28135
G1 X173.382 Y73.622 E7.2939
G1 X173.394 Y73.721 E7.29887
G1 X173.436 Y74.107 E7.31825
G1 X173.446 Y74.214 E7.32361
G1 X173.461 Y74.414 E7.33361
G1 X173.468 Y74.554 E7.34061
G1 X173.493 Y75.362 E7.38094
G1 X173.495 Y75.461 E7.38588
G1 X173.498 Y123.831 E9.79907
G1 X173.497 Y123.891 E9.80206
G1 X173.469 Y125.379 E9.87631
G1 X173.461 Y125.559 E9.8853
G1 X173.435 Y125.904 E9.90256
G1 X173.419 Y126.064 E9.91058
G1 X173.359 Y126.54 E9.93452
G1 X173.34 Y126.67 E9.94107
G1 X173.3 Y126.908 E9.95311
G1 X173.277 Y127.028 E9.95921
G1 X173.195 Y127.423 E9.97934
G1 X173.172 Y127.525 E9.98455
G1 X173.12 Y127.74 E9.99559
G1 X173.081 Y127.887 E10.00318
G1 X172.935 Y128.386 E10.02911
G1 X172.897 Y128.507 E10.03544
G1 X172.817 Y128.745 E10.04797
G1 X172.774 Y128.865 E10.05433
G1 X172.628 Y129.248 E10.07478
G1 X172.55 Y129.436 E10.08493
G1 X172.25 Y130.094 E10.12101
G1 X172.175 Y130.246 E10.12947
G1 X172.078 Y130.432 E10.13993
G1 X172.017 Y130.544 E10.14629
G1 X171.799 Y130.924 E10.16815
G1 X171.739 Y131.024 E10.17397
G1 X171.61 Y131.231 E10.18614
G1 X171.535 Y131.346 E10.19299
G1 X171.232 Y131.789 E10.21976
G1 X171.146 Y131.909 E10.22713
G1 X170.59 Y132.646 E10.27319
G1 X170.496 Y132.765 E10.28075
G1 X170.289 Y133.014 E10.29691
G1 X170.163 Y133.156 E10.30638
G1 X169.79 Y133.554 E10.33359
G1 X169.635 Y133.708 E10.34449
G1 X169.159 Y134.151 E10.37694
G1 X169.014 Y134.279 E10.38659
G1 X168.781 Y134.471 E10.40165
G1 X168.682 Y134.549 E10.40794
G1 X168.191 Y134.922 E10.4387
G1 X168.003 Y135.055 E10.45019
G1 X167.641 Y135.291 E10.47175
G1 X167.523 Y135.364 E10.47867
G1 X167.251 Y135.525 E10.49444
G1 X167.159 Y135.577 E10.49971
G1 X166.785 Y135.782 E10.52099
G1 X166.599 Y135.877 E10.53141
G1 X165.996 Y136.158 E10.5646
G1 X165.875 Y136.211 E10.57119
G1 X165.659 Y136.301 E10.58286
G1 X165.504 Y136.361 E10.59116
G1 X165.053 Y136.522 E10.61505
G1 X164.917 Y136.567 E10.62219
G1 X164.673 Y136.642 E10.63493
G1 X164.56 Y136.674 E10.64079
G1 X164.186 Y136.774 E10.6601
G1 X164.107 Y136.794 E10.66417
G1 X163.849 Y136.856 E10.67741
G1 X163.707 Y136.887 E10.68466
G1 X163.261 Y136.973 E10.70732
G1 X163.095 Y137.001 E10.71572
G1 X162.785 Y137.044 E10.73133
G1 X162.69 Y137.055 E10.7361
G1 X162.34 Y137.093 E10.75367
G1 X162.234 Y137.103 E10.75898
G1 X162.034 Y137.118 E10.76898
G1 X161.894 Y137.125 E10.77598
G1 X161.086 Y137.15 E10.81631
G1 X160.987 Y137.152 E10.82125
G1 X42.272 Y137.155 E16.74396
G1 X42.271 Y137.155 E16.74401
G1 X39.771 Y137.154 E16.86874
G1 X39.711 Y137.153 E16.87173
G1 X38.294 Y137.126 E16.94244
G1 X38.129 Y137.119 E16.95068
G1 X37.761 Y137.093 E16.96909
G1 X37.589 Y137.076 E16.97771
G1 X37.095 Y137.014 E17.00255
G1 X36.92 Y136.987 E17.01138
G1 X36.607 Y136.93 E17.02725
G1 X36.526 Y136.914 E17.03137
G1 X36.229 Y136.852 E17.04651
G1 X36.13 Y136.83 E17.05157
G1 X35.878 Y136.769 E17.06451
G1 X35.737 Y136.732 E17.07178
G1 X35.194 Y136.574 E17.09999
G1 X35.038 Y136.524 E17.10816
G1 X34.206 Y136.235 E17.15211
G1 X34.063 Y136.181 E17.15973
G1 X33.717 Y136.042 E17.17833
G1 X33.546 Y135.968 E17.18763
G1 X33.062 Y135.74 E17.21432
G1 X32.946 Y135.682 E17.22079
G1 X32.762 Y135.586 E17.23115
G1 X32.652 Y135.526 E17.2374
G1 X32.266 Y135.305 E17.25959
G1 X32.141 Y135.23 E17.26686
G1 X31.922 Y135.091 E17.2798
G1 X31.832 Y135.032 E17.28517
G1 X31.441 Y134.765 E17.30879
G1 X31.276 Y134.644 E17.319
G1 X30.792 Y134.266 E17.34964
G1 X30.642 Y134.141 E17.35938
G1 X30.399 Y133.926 E17.37557
G1 X30.328 Y133.861 E17.38037
G1 X30.014 Y133.566 E17.40187
G1 X29.863 Y133.414 E17.41255
G1 X29.433 Y132.952 E17.44404
G1 X29.297 Y132.797 E17.45433
G1 X29.078 Y132.529 E17.4716
G1 X29.017 Y132.452 E17.4765
G1 X28.793 Y132.16 E17.49486
G1 X28.74 Y132.089 E17.49928
G1 X28.614 Y131.915 E17.51
G1 X28.534 Y131.798 E17.51707
G1 X28.285 Y131.42 E17.53965
G1 X28.203 Y131.29 E17.54732
G1 X28.068 Y131.062 E17.56054
G1 X28.012 Y130.964 E17.56617
G1 X27.795 Y130.566 E17.58879
G1 X27.752 Y130.484 E17.5934
G1 X27.66 Y130.303 E17.60353
G1 X27.596 Y130.169 E17.61094
G1 X27.406 Y129.748 E17.63399
G1 X27.365 Y129.652 E17.63919
G1 X27.278 Y129.441 E17.65058
G1 X27.222 Y129.295 E17.65838
G1 X27.056 Y128.829 E17.68306
G1 X27.011 Y128.694 E17.69016
G1 X26.934 Y128.443 E17.70326
G1 X26.904 Y128.339 E17.70866
G1 X26.811 Y127.995 E17.72644
G1 X26.788 Y127.904 E17.73112
G1 X26.727 Y127.649 E17.7442
G1 X26.698 Y127.515 E17.75104
G1 X26.605 Y127.036 E17.77539
G1 X26.574 Y126.845 E17.78504
G1 X26.535 Y126.55 E17.79989
G1 X26.524 Y126.463 E17.80426
G1 X26.486 Y126.099 E17.82252
G1 X26.479 Y126.014 E17.82677
G1 X26.463 Y125.807 E17.83713
G1 X26.454 Y125.642 E17.84538
G1 X26.428 Y124.631 E17.89583
G1 X26.427 Y124.549 E17.89992
G1 X26.426 Y75.934 E20.32534
G1 X26.427 Y75.872 E20.32843
G1 X26.456 Y74.381 E20.40283
G1 X26.463 Y74.216 E20.41107
G1 X26.487 Y73.878 E20.42797
G1 X26.504 Y73.707 E20.43655
G1 X26.566 Y73.213 E20.46139
G1 X26.593 Y73.038 E20.47022
G1 X26.65 Y72.725 E20.48609
G1 X26.666 Y72.644 E20.49021
G1 X26.728 Y72.347 E20.50535
G1 X26.751 Y72.243 E20.51066
G1 X26.81 Y72.001 E20.52309
G1 X26.848 Y71.86 E20.53038
G1 X26.995 Y71.358 E20.55647
G1 X27.037 Y71.224 E20.56348
G1 X27.112 Y71.004 E20.57507
G1 X27.153 Y70.891 E20.58107
G1 X27.296 Y70.518 E20.601
G1 X27.333 Y70.426 E20.60595
G1 X27.419 Y70.221 E20.61704
G1 X27.472 Y70.102 E20.62354
G1 X27.678 Y69.662 E20.64778
G1 X27.737 Y69.543 E20.6544
G1 X27.855 Y69.316 E20.66717
G1 X27.921 Y69.195 E20.67404
G1 X28.13 Y68.832 E20.69494
G1 X28.195 Y68.724 E20.70123
G1 X28.331 Y68.508 E20.71396
G1 X28.396 Y68.409 E20.71987
G1 X28.671 Y68.006 E20.74421
G1 X28.791 Y67.842 E20.75435
G1 X29.167 Y67.36 E20.78485
G1 X29.294 Y67.207 E20.79477
G1 X29.517 Y66.955 E20.81156
G1 X29.583 Y66.883 E20.81643
G1 X29.87 Y66.578 E20.83733
G1 X30.02 Y66.429 E20.84787
G1 X30.482 Y65.999 E20.87936
G1 X30.636 Y65.864 E20.88958
G1 X30.905 Y65.644 E20.90692
G1 X30.985 Y65.581 E20.912
G1 X31.276 Y65.358 E20.93029
G1 X31.342 Y65.308 E20.93442
G1 X31.517 Y65.181 E20.94521
G1 X31.635 Y65.1 E20.95235
G1 X32.011 Y64.852 E20.97482
G1 X32.149 Y64.766 E20.98293
G1 X32.385 Y64.627 E20.99659
G1 X32.47 Y64.579 E21.00147
G1 X32.86 Y64.365 E21.02366
G1 X32.955 Y64.314 E21.02904
G1 F1500 E14.52904
;MESH:s7 case 1.1.stl
G0 F3600 X35.415 Y66.014
G0 X35.866 Y67.214
G0 X37.568 Y66.848
G0 X37.554 Y66.75
;TYPE:WALL-INNER
G1 F1500 E21.02904
G1 F1800 X38.145 Y66.679 E21.05874
G1 X38.855 Y66.646 E21.0942
G1 X157.823 Y66.645 E27.02953
G1 X161.225 Y66.646 E27.19926
G1 X161.827 Y66.669 E27.22932
G1 X162.515 Y66.746 E27.26385
G1 X163.098 Y66.861 E27.2935
G1 X163.753 Y67.041 E27.32739
G1 X164.329 Y67.252 E27.35799
G1 X164.948 Y67.534 E27.39193
G1 X165.461 Y67.817 E27.42116
G1 X166.044 Y68.203 E27.45604
G1 X166.515 Y68.571 E27.48586
G1 X167.012 Y69.027 E27.51951
G1 X167.423 Y69.467 E27.54955
G1 X167.858 Y70.015 E27.58446
G1 X168.133 Y70.393 E27.60778
G1 X168.465 Y70.887 E27.63748
G1 X168.794 Y71.469 E27.67083
G1 X169.053 Y72.022 E27.70129
G1 X169.291 Y72.657 E27.73513
G1 X169.455 Y73.232 E27.76496
G1 X169.592 Y73.901 E27.79903
G1 X169.665 Y74.502 E27.82923
G1 X169.697 Y75.199 E27.86404
G1 X169.698 Y124.777 E30.3375
G1 X169.675 Y125.386 E30.3679
G1 X169.6 Y126.054 E30.40144
G1 X169.486 Y126.641 E30.43127
G1 X169.301 Y127.308 E30.4658
G1 X169.089 Y127.887 E30.49657
G1 X168.815 Y128.489 E30.52957
G1 X168.523 Y129.018 E30.55971
G1 X168.138 Y129.599 E30.59448
G1 X167.848 Y129.998 E30.61909
G1 X167.503 Y130.44 E30.64707
G1 X167.041 Y130.944 E30.68118
G1 X166.6 Y131.356 E30.71129
G1 X166.072 Y131.776 E30.74495
G1 X165.555 Y132.124 E30.77604
G1 X164.975 Y132.452 E30.80928
G1 X164.423 Y132.71 E30.83968
G1 X163.794 Y132.947 E30.87321
G1 X163.216 Y133.111 E30.90319
G1 X162.543 Y133.249 E30.93746
G1 X161.95 Y133.321 E30.96727
G1 X161.24 Y133.354 E31.00273
G1 X42.272 Y133.355 E36.93806
G1 X38.87 Y133.354 E37.10779
G1 X38.267 Y133.331 E37.1379
G1 X37.58 Y133.254 E37.17238
G1 X36.997 Y133.139 E37.20203
G1 X36.317 Y132.952 E37.23722
G1 X35.866 Y132.804 E37.2609
G1 X35.325 Y132.605 E37.28966
G1 X34.711 Y132.326 E37.3233
G1 X34.172 Y132.029 E37.35401
G1 X33.621 Y131.663 E37.38701
G1 X33.131 Y131.282 E37.41797
G1 X32.627 Y130.819 E37.45212
G1 X32.225 Y130.389 E37.48149
G1 X31.797 Y129.849 E37.51586
G1 X31.461 Y129.351 E37.54583
G1 X31.128 Y128.762 E37.57959
G1 X30.871 Y128.213 E37.60983
G1 X30.633 Y127.578 E37.64366
G1 X30.468 Y127 E37.67365
G1 X30.331 Y126.33 E37.70777
G1 X30.259 Y125.734 E37.73772
G1 X30.227 Y125.036 E37.77258
G1 X30.226 Y74.988 E40.26949
G1 X30.248 Y74.391 E40.29929
G1 X30.327 Y73.683 E40.33483
G1 X30.435 Y73.136 E40.36265
G1 X30.624 Y72.452 E40.39805
G1 X30.832 Y71.883 E40.42828
G1 X31.111 Y71.27 E40.46188
G1 X31.401 Y70.746 E40.49176
G1 X31.776 Y70.181 E40.52559
G1 X32.153 Y69.696 E40.55624
G1 X32.616 Y69.192 E40.59038
G1 X33.046 Y68.79 E40.61975
G1 X33.586 Y68.362 E40.65413
G1 X34.084 Y68.026 E40.6841
G1 X34.673 Y67.693 E40.71785
G1 X35.225 Y67.435 E40.74825
G1 X35.856 Y67.198 E40.78188
G1 X36.338 Y67.042 E40.80716
G1 X36.873 Y66.891 E40.83489
G1 X37.554 Y66.75 E40.86959
G0 F3600 X37.568 Y66.848
G0 X70.27 Y92.45
G0 X72.948 Y92.517
G0 X72.948 Y92.417
G1 F1800 X72.867 Y92.202 E40.88105
G1 X72.567 Y91.409 E40.92335
G1 X72.25 Y90.95 E40.95118
G1 X71.978 Y90.461 E40.97909
G1 X71.819 Y90.014 E41.00276
G1 X71.734 Y89.531 E41.02723
G1 X71.752 Y89.012 E41.05314
G1 X71.867 Y88.575 E41.07568
G1 X72.012 Y88.323 E41.09019
G1 X72.316 Y88.032 E41.11118
G1 X72.632 Y87.846 E41.12948
G1 X73.033 Y87.708 E41.15064
G1 X73.544 Y87.623 E41.17648
G1 X73.987 Y87.596 E41.19862
G1 X74.579 Y87.631 E41.22821
G1 X75.064 Y87.729 E41.25289
G1 X75.454 Y87.883 E41.27381
G1 X75.751 Y88.081 E41.29162
G1 X75.982 Y88.327 E41.30846
G1 X76.142 Y88.605 E41.32446
G1 X76.243 Y88.938 E41.34182
G1 X76.278 Y89.331 E41.3615
G1 X76.237 Y89.753 E41.38266
G1 X76.092 Y90.262 E41.40906
G1 X75.838 Y90.798 E41.43865
G1 X75.429 Y91.412 E41.47546
G1 X75.16 Y92.15 E41.51465
G1 X75.063 Y92.417 E41.52882
G1 X75.347 Y92.417 E41.53719
G1 X75.348 Y92.417 E41.53724
G1 X77.725 Y92.417 E41.65583
G1 X77.784 Y92.284 E41.66309
G1 X78.113 Y91.553 E41.70308
G1 X78.34 Y90.902 E41.73748
G1 X78.503 Y90.198 E41.77353
G1 X78.566 Y89.465 E41.81023
G1 X78.512 Y88.677 E41.84964
G1 X78.329 Y87.884 E41.89024
G1 X78.264 Y87.655 E41.90212
G1 X77.872 Y86.909 E41.94416
G1 X77.447 Y86.402 E41.97717
G1 X77.173 Y86.14 E41.99608
G1 X76.641 Y85.731 E42.02956
G1 X75.848 Y85.359 E42.07326
G1 X74.959 Y85.142 E42.11891
G1 X73.993 Y85.072 E42.16724
G1 X73.342 Y85.104 E42.19975
G1 X72.479 Y85.242 E42.24336
G1 X71.619 Y85.551 E42.28895
G1 X70.89 Y86.004 E42.33177
G1 X70.37 Y86.517 E42.36821
G1 X70.06 Y86.937 E42.39425
G1 X69.739 Y87.6 E42.431
G1 X69.516 Y88.414 E42.47311
G1 X69.435 Y89.287 E42.51685
G1 X69.469 Y90.021 E42.55351
G1 X69.604 Y90.696 E42.58785
G1 X69.819 Y91.343 E42.62187
G1 X70.095 Y91.992 E42.65705
G1 X70.292 Y92.417 E42.68042
G1 X71.474 Y92.417 E42.73939
G1 X72.142 Y92.417 E42.77272
G1 X72.637 Y92.417 E42.79741
G1 X72.867 Y92.417 E42.80513
G1 X72.948 Y92.417 E42.80917
G0 F3600 X72.948 Y92.517
G0 X71.457 Y92.782
G0 X70.324 Y93.416
G0 X69.616 Y94.453
G0 X69.4 Y95.624
G0 X69.554 Y97.617
G0 X69.624 Y97.687
G1 F1800 X69.624 Y100.162 E42.93265
G1 X78.376 Y100.162 E43.36929
G1 X78.376 Y97.687 E43.49277
G1 X72.473 Y97.687 E43.78727
G1 X72.345 Y97.502 E43.79849
G1 X72.083 Y97.009 E43.82635
G1 X71.916 Y96.545 E43.85095
G1 X71.854 Y96.134 E43.87168
G1 X71.876 Y95.717 E43.89252
G1 X71.932 Y95.523 E43.90259
G1 X72.023 Y95.392 E43.91055
G1 X72.142 Y95.3 E43.91805
G1 X72.46 Y95.179 E43.93503
G1 X73 Y95.116 E43.96215
G1 X73.506 Y95.103 E43.9874
G1 X78.376 Y95.103 E44.23037
G1 X78.376 Y92.628 E44.35385
G1 X77.871 Y92.628 E44.37904
G1 X77.725 Y92.628 E44.38489
G1 X75.063 Y92.628 E44.5177
G1 X72.948 Y92.628 E44.6223
G1 X72.867 Y92.628 E44.62443
G1 X72.638 Y92.642 E44.63317
G1 X72.637 Y92.643 E44.63324
G1 X72.142 Y92.673 E44.65352
G1 X71.489 Y92.815 E44.6809
G1 X71.468 Y92.82 E44.68198
G1 X70.865 Y93.075 E44.71464
G1 X70.35 Y93.445 E44.74628
G1 X69.94 Y93.916 E44.77743
G1 X69.652 Y94.468 E44.80849
G1 X69.483 Y95.083 E44.84031
G1 X69.43 Y95.754 E44.87389
G1 X69.495 Y96.473 E44.90991
G1 X69.717 Y97.214 E44.9485
G1 X69.891 Y97.546 E44.9672
G1 X69.965 Y97.687 E44.97515
G1 X69.624 Y97.687 E44.98534
G0 F3600 X69.554 Y97.617
G0 X69.554 Y103.81
G0 X69.624 Y103.74
G1 F1800 X75.516 Y103.74 E45.2793
G1 X75.796 Y104.175 E45.30511
G1 X76.016 Y104.653 E45.33136
G1 X76.128 Y105.086 E45.35367
G1 X76.144 Y105.479 E45.3733
G1 X76.093 Y105.813 E45.39015
G1 X76.024 Y105.972 E45.3988
G1 X75.916 Y106.091 E45.40682
G1 X75.787 Y106.166 E45.41426
G1 X75.373 Y106.271 E45.43557
G1 X74.935 Y106.311 E45.45751
G1 X73.576 Y106.324 E45.52532
G1 X69.624 Y106.324 E45.72248
G1 X69.624 Y108.799 E45.84596
G1 X75.133 Y108.799 E46.12081
G1 X75.823 Y108.756 E46.1553
G1 X75.846 Y108.755 E46.15645
G1 X76.025 Y108.718 E46.16556
